src/pos-icons/numeric-3-box-multiple.svg

<svg height="24" viewBox="0 0 24 24" width="24" xmlns="http://www.w3.org/2000/svg"><path d="m3 5v16h16v2h-16a2 2 0 0 1 -2-2v-16zm14 8v-1.5a1.5 1.5 0 0 0 -1.5-1.5 1.5 1.5 0 0 0 1.5-1.5v-1.5c0-1.11-.9-2-2-2h-4v2h4v2h-2v2h2v2h-4v2h4a2 2 0 0 0 2-2m4-12a2 2 0 0 1 2 2v14a2 2 0 0 1 -2 2h-14a2 2 0 0 1 -2-2v-14a2 2 0 0 1 2-2z"/></svg>

<?xml version="1.0" encoding="UTF-8"?><!DOCTYPE svg PUBLIC "-//W3C//DTD SVG 1.1//EN" "http://www.w3.org/Graphics/SVG/1.1/DTD/svg11.dtd"><svg xmlns="http://www.w3.org/2000/svg" xmlns:xlink="http://www.w3.org/1999/xlink" version="1.1" id="mdi-numeric-3-box-multiple" width="24" height="24" viewBox="0 0 24 24"><path d="M3,5V21H19V23H3A2,2 0 0,1 1,21V5H3M17,13V11.5A1.5,1.5 0 0,0 15.5,10A1.5,1.5 0 0,0 17,8.5V7C17,5.89 16.1,5 15,5H11V7H15V9H13V11H15V13H11V15H15A2,2 0 0,0 17,13M21,1A2,2 0 0,1 23,3V17A2,2 0 0,1 21,19H7A2,2 0 0,1 5,17V3A2,2 0 0,1 7,1H21Z" /></svg>
